RestoDelMundo/Paises Bajos/Otras Categorias/Go Ahead Kampen.svg

<svg xmlns="http://www.w3.org/2000/svg" viewBox="0 0 612 792"><path fill="#ffec13" d="m86.406 644.425 222.578-224.03 25.548 25.381-222.578 224.03ZM292.213 382.511l55.53 54.605 23.534-23.535-54.163-53.966ZM347.6 254.888l29.439-29.439h-216.35l19.268 29.439ZM384.6 222.317l-35.668 35.669 13.803.03 35.597-35.7ZM433.624 261.546h-17.149l-69.023 69.024 53.616 53.22 77.123-77.126Z"/><path fill="#ffec13" d="m344.128 331.686-1.114-1.108 72.164-72.164h19.756l99.416 100.642L401.217 492.56l27.81 25.959 157.072-156.677-132.43-136.393h-54.041L269.586 355.868l22.699 22.321 24.915-22.91 56.294 56.085 25.359-25.359ZM481.821 166.803c0 24.214-19.632 43.847-43.843 43.847-24.219 0-43.849-19.632-43.849-43.847 0-24.21 19.63-43.843 43.849-43.843 24.211 0 43.843 19.633 43.843 43.843M288.408 406.75l-26.719-27.275-94.601 94.592 25.842 25.71Z"/><path fill="#ed1c24" d="m183.206 348.296 51.776 53.452-41.233 41.23-108-107.186 79.415-77.771 183.735-.002 35.7-35.701h-243.26L24.5 336.614l168.408 167.561 99.936-97.376-83.208-84.932zm9.724 151.481L28.961 336.633l113.654-111.185h234.424l-29.44 29.439H163.887l-82.598 80.89 112.467 111.622 45.623-45.618-51.778-53.449 22.011-22.013 78.796 80.43z"/><path fill="#ed1c24" d="M454.991 222.316h-56.659L265.141 355.889l1.124 1.107 25.949 25.515 24.901-22.896 106.499 106.109-26.87 26.947 32.355 30.202L590.5 361.877zm-25.964 296.203-27.81-25.96 26.798-26.872L317.2 355.279l-24.915 22.91-22.699-22.321 130.042-130.419h54.041l132.43 136.393z"/><path fill="#ed1c24" d="M434.934 258.414h-19.756l-72.164 72.164 1.114 1.108 109.408 108.597 80.814-81.228zm18.589 177.442L347.452 330.57l69.022-69.024h17.149l96.311 97.501z"/></svg>

<svg enable-background="new 0 0 612 792" viewBox="0 0 612 792" xmlns="http://www.w3.org/2000/svg"><path d="M 52.56 527.117 H 368.363 V 563.13 H 52.56 Z" fill="#ffec13" transform="matrix(.7048 -.7094 .7094 .7048 -324.5749 310.1989)"/><path d="M 292.213 382.511 L 347.743 437.116 L 371.277 413.581 L 317.114 359.615 Z" fill="#ffec13"/><path d="M 347.6 254.888 L 377.039 225.449 L 160.689 225.449 L 179.957 254.888 Z" fill="#ffec13"/><path d="M 384.6 222.317 L 348.932 257.986 L 362.735 258.016 L 398.332 222.316 Z" fill="#ffec13"/><path d="M 433.624 261.546 L 416.475 261.546 L 347.452 330.57 L 401.068 383.79 L 478.191 306.664 Z" fill="#ffec13"/><path d="M 344.128 331.686 L 343.014 330.578 L 415.178 258.414 L 434.934 258.414 L 534.35 359.056 L 401.217 492.56 L 429.027 518.519 L 586.099 361.842 L 453.669 225.449 L 399.628 225.449 L 269.586 355.868 L 292.285 378.189 L 317.2 355.279 L 373.494 411.364 L 398.853 386.005 Z" fill="#ffec13"/><path d="M 481.821 166.803 c 0 24.214 -19.632 43.847 -43.843 43.847 c -24.219 0 -43.849 -19.632 -43.849 -43.847 c 0 -24.21 19.63 -43.843 43.849 -43.843 C 462.189 122.96 481.821 142.593 481.821 166.803" fill="#ffec13"/><path d="M 288.408 406.75 L 261.689 379.475 L 167.088 474.067 L 192.93 499.777 Z" fill="#ffec13"/><path d="M 183.206 348.296 l 51.776 53.452 l -41.233 41.23 l -108 -107.186 l 79.415 -77.771 l 183.735 -.002 l 35.7 -35.701 h -3.779 H 141.339 L 24.5 336.614 l 168.408 167.561 l 99.936 -97.376 l -83.208 -84.932 L 183.206 348.296 z M 192.93 499.777 L 28.961 336.633 l 113.654 -111.185 h 234.424 l -29.44 29.439 H 163.887 l -82.598 80.89 l 112.467 111.622 l 45.623 -45.618 l -51.778 -53.449 l 22.011 -22.013 l 78.796 80.43 L 192.93 499.777 z" fill="#ed1c24"/><path d="M 454.991 222.316 h -56.659 L 265.141 355.889 l 1.124 1.107 l 25.949 25.515 l 24.901 -22.896 l 106.499 106.109 l -26.87 26.947 l 32.355 30.202 L 590.5 361.877 L 454.991 222.316 z M 429.027 518.519 l -27.81 -25.96 l 26.798 -26.872 L 317.2 355.279 l -24.915 22.91 l -22.699 -22.321 l 130.042 -130.419 h 54.041 l 132.43 136.393 L 429.027 518.519 z" fill="#ed1c24"/><path d="M 434.934 258.414 h -19.756 l -72.164 72.164 l 1.114 1.108 l 109.408 108.597 l 80.814 -81.228 L 434.934 258.414 z M 453.523 435.856 L 347.452 330.57 l 69.022 -69.024 h 17.149 l 96.311 97.501 L 453.523 435.856 z" fill="#ed1c24"/></svg>
